X:1372
T:The Grey Daylight
R:Reel
N:Collected by McNamara
B:O'Neill's 1372
Z:Transcribed by Trish O'Neil
M:C|
L:1/8
K:D
(A/2G/2F/2E/2)"Segno"|:{D2(FA) DAFA|A,2(CE) A,ECE|
D2(FA) DAFA|1(3Bcd (3cde dBAF:|2(3Bcd (3cde dfec||
d2(fd) gdfd|(3BBB (ed) cABc|(3ddd (fd) gdfd|(3Bcd (3cde dfec|
d2(fd) gdfd|(3BBB (ed) cABc|defg abag|fdec dBA"D.S."F|]


